X:299
T: Humours of Ardmore
N: O'Farrell's Pocket Companion v.3 (Sky ed. p.133)
N: "Irish"
M: 6/8
L: 1/8
R: jig
Q: 320
K: G
AGE E2D| EGE E2D| AGE E2D| GAB c3|
BGE E2D| EGE E2D| GAB c2A| BGE G3 :|
dBd ege| dBG AGE| dBd ege| dBG A3|
def gfe| dBG AGE| GAB c2A| BGE G3 :|
